static/assets/element/ChevronLeft.svg

<svg fill="none" height="86" viewBox="0 0 49 86" width="49" xmlns="http://www.w3.org/2000/svg"><path d="m.750488 42.7395c0 1.2229.497432 2.3002 1.388802 3.2328l38.69421 37.8224c.8185.8703 1.9475 1.3054 3.2012 1.3054 2.5273 0 4.4442-1.8958 4.4442-4.4442 0-1.2431-.4869-2.3204-1.2948-3.1801l-35.4835-34.7363 35.4835-34.73644c.8079-.8597 1.2948-1.9888 1.2948-3.1801 0-2.5485-1.9169-4.444298-4.4442-4.444298-1.2537 0-2.3827.435197-3.2012 1.305398l-38.69421 37.82254c-.89137.9326-1.388802 2.0099-1.388802 3.2329z" fill="#808080"/></svg>

<svg width="49" height="86" viewBox="0 0 49 86" fill="none" xmlns="http://www.w3.org/2000/svg">
<path d="M0.750488 42.7395C0.750488 43.9624 1.24792 45.0397 2.13929 45.9723L40.8335 83.7947C41.652 84.665 42.781 85.1001 44.0347 85.1001C46.562 85.1001 48.4789 83.2043 48.4789 80.6559C48.4789 79.4128 47.992 78.3355 47.1841 77.4758L11.7006 42.7395L47.1841 8.00306C47.992 7.14336 48.4789 6.01426 48.4789 4.82296C48.4789 2.27446 46.562 0.378662 44.0347 0.378662C42.781 0.378662 41.652 0.813859 40.8335 1.68406L2.13929 39.5066C1.24792 40.4392 0.750488 41.5165 0.750488 42.7395Z" fill="gray"/>
</svg>
